X:1
T:James Gibb editions
T:Gentil madonna - Azzaiolo
T:#
%%score [ 1 2 3 4 ]
L:1/8
Q:1/4=90
M:6/8
K:Bb
V:1 treble nm="Soprano" snm="S"
V:2 treble nm="Alto" snm="A"
V:3 treble-8 nm="Tenor" snm="T"
V:4 bass nm="Bass" snm="B"
V:1
"^Gentil madonna""^Filippo Azzaiolo\n(C16th)" AAA A2 A | B2 A B2 c | (_d3 c3 | _d3) d2 c || %4
w: Gen- til ma- don- na,|del mio cor pa-|tro\- *|* na E|
w: Se ben ti vo- glio|ca- ra mia si-|gno\- *|* ra Per-|
[M:4/4] x8 |[M:4/4] B2 B2 BA B2 ||[M:6/8] AAA A2 A | B2 A B2 c | _d3 c3 |[M:6/8] _d3 d2 c || %10
w: |di mia vi- ta~~an- cor.|So- la nel mon- do|mia fer- ma co-|lon\- *|* na Ri-|
w: |chè no vuoi a me?|Sap- pi che sei la|mia ca- ra de-|co\- *|* ra E|
[M:4/4] B2 B2 BA B2 ||[M:6/8] z6 | ccc A2 A | z6 | ccc A2 A | _ddd ccc | B2 B ||[M:3/4] =A2 A4 || %18
w: me- dio~~a ogni mio~~ar- dor.||per dir- t'il tut- to||di par- te~~in par- te|Tut- te le pe- ne che|d'A- mor|vie- ne.|
w: fa ch'io sia di te.||n'es- ser cru- de- le||non me ne do- glio|Vi- vo~in spe- ran- za che~in|tua fi-|dan- za|
[M:6/8] x6 |[M:6/8] A3 B2 c | _d3 d2 c ||[M:4/4] B2 B2 BA B2 ||[M:6/8] A3 B2 c | _d3 d2 c || %24
w: |Gen- til ma-|don- na,~~il ri-|me- dio se- i tu|Gen- til ma-|don- na,~~il ri-|
w: ||||||
[M:4/4] B2 B2 BA B2 | B2 B2 B2 BB ||[M:3/4] B4 (3BBB | B6 |] %28
w: me- dio se- i tu,|il ri- me- dio sei|tu, deh! Non star|più.|
w: ||||
V:2
 FFF F2 F | F2 F F2 _A | _A6- | A3 _A2 A ||[M:4/4] x8 |[M:4/4] F2 _G2 FF F2 ||[M:6/8] FFF F2 F | %7
w: Gen- til ma- don- na,|del mio cor pa-|tro\-|* na E||di mia vi- ta~~an- cor.|So- la nel mon- do|
w: Se ben ti vo- glio|ca- ra mia si-|gno\-|* ra Per-||chè no vuoi a me?|Sap- pi che sei la|
 F2 F F2 _A | _A6- |[M:6/8] A3 _A2 A ||[M:4/4] F2 _G2 FF F2 ||[M:6/8] z6 | FF=E F2 F | z6 | %14
w: mia fer- ma co-|lon\-|* na Ri-|me- dio~~a ogni mio~~ar- dor.||per dir- t'il tut- to||
w: mia ca- ra de-|co\-|* ra E|fa ch'io sia di te.||n'es- ser cru- de- le||
 FF=E F2 F | _AAA AAA | F2 E ||[M:3/4] F2 F4 ||[M:6/8] x6 |[M:6/8] F3 F2 _A | _A3 A2 A || %21
w: di par- te~~in par- te|Tut- te le pe- ne che|d'A- mor|vie- ne.||Gen- til ma-|don- na,~~il ri-|
w: non me ne do- glio|Vi- vo~~in spe- ran- za che~~in|tua fi-|dan- za||||
[M:4/4] F2 _G2 FF F2 ||[M:6/8] F3 F2 _A | _A3 A2 A ||[M:4/4] F2 _G2 FF F2 | G2 G2 B2 AG || %26
w: me- dio se- i tu|Gen- til ma-|don- na,~~il ri-|me- dio se- i tu,|il ri- me- dio sei|
w: |||||
[M:3/4] G4 (3GGG | F6 |] %28
w: tu, deh! Non star|più.|
w: ||
V:3
 ccc c2 c | _d2 c d2 e | (f3 e3 | f3) f2 e ||[M:4/4] x8 |[M:4/4][K:treble-8] _d2 e2 cc d2 || %6
w: Gen- til ma- don- na,|del mio cor pa-|tro\- *|* na E||di mia vi- ta~~an- cor.|
w: Se ben ti vo- glio|ca- ra mia si-|gno\- *|* ra Per-||chè no vuoi a me?|
[M:6/8] ccc c2 c | _d2 c d2 e | f3 e3 |[M:6/8][K:treble-8] f3 f2 e ||[M:4/4] _d2 e2 cc B2 || %11
w: So- la nel mon- do|mia fer- ma co-|lon\- *|* na Ri-|me- dio~~a ogni mio~~ar- dor.|
w: Sap- pi che sei la|mia ca- ra de-|co\- *|* ra E|fa ch'io sia di te.|
[M:6/8] _ddd c2 c | z6 | c_dd c2 c | z6 | fff eee | _d2 B ||[M:3/4] c2 c4 ||[M:6/8] x6 | %19
w: Son qui ve- nu- to,||E per con- tar- te||Tut- te le pe- ne che|d'A- mor|vie- ne.||
w: S'io son fe- de- le,||Se ben ti vo- glio||Vi- vo~~in spe- ran- za che~~in|tua fi-|dan- za||
[M:6/8][K:treble-8] c3 _d2 e | f3 f2 e ||[M:4/4] _d2 e2 cc B2 ||[M:6/8] c3 _d2 e | f3 f2 e || %24
w: Gen- til ma-|don- na,~~il ri-|me- dio se- i tu|Gen- til ma-|don- na,~~il ri-|
w: |||||
[M:4/4][K:treble-8] _d2 e2 cc d2 | e2 e2 e2 ee ||[M:3/4] e4 (3eee | d6 |] %28
w: me- dio se- i tu,|il ri- me- dio sei|tu, deh! Non star|più.|
w: ||||
V:4
 F,F,F, F,2 F, | B,2 F, B,2 _A, | (_D,3 _A,3 | _D,3) D,2 _A, ||[M:4/4] x8 | %5
w: Gen- til ma- don- na,|del mio cor pa-|tro\- *|* na E||
w: Se ben ti vo- glio|ca- ra mia si-|gno\- *|* ra Per-||
[M:4/4] B,2 E,2 F,F, B,,2 ||[M:6/8] F,F,F, F,2 F, | B,2 F, B,2 _A, | _D,3 _A,3 | %9
w: di mia vi- ta~~an- cor.|So- la nel mon- do|mia fer- ma co-|lon\- *|
w: chè no vuoi a me?|Sap- pi che sei la|mia ca- ra de-|co\- *|
[M:6/8] _D,3 D,2 _A, ||[M:4/4] B,2 E,2 F,F, B,,2 ||[M:6/8] B,B,B, F,2 F, | z6 | F,B,B, F,2 F, | %14
w: * na Ri-|me- dio~~a ogni mio~~ar- dor.|Son qui ve- nu- to,||E per con- tar- te|
w: * ra E|fa ch'io sia di te.|S'io son fe- de- le,||Se ben ti vo- glio|
 z6 | _D,D,D, _A,A,A, | B,2 _G, ||[M:3/4] F,2 F,4 ||[M:6/8] x6 |[M:6/8] F,3 B,2 _A, | %20
w: |Tut- te le pe- ne che|d'A- mor|vie- ne.||Gen- til ma-|
w: |Vi- vo~~in spe- ran- za che~~in|tua fi-|dan- za|||
 _D,3 D,2 _A, ||[M:4/4] B,2 E,2 F,F, B,,2 ||[M:6/8] F,3 B,2 _A, | _D,3 D,2 _A, || %24
w: don- na,~~il ri-|me- dio se- i tu|Gen- til ma-|don- na,~~il ri-|
w: ||||
[M:4/4] B,2 E,2 F,F, B,,2 | E,2 E,2 E,2 E,E, ||[M:3/4] E,4 (3E,E,E, | B,,6 |] %28
w: me- dio se- i tu,|il ri- me- dio sei|tu, deh! Non star|più.|
w: ||||

